documentation/public/assets/images/switch-04-dont.svg

<svg width="92" height="21" viewBox="0 0 92 21" fill="none" xmlns="http://www.w3.org/2000/svg">
<rect x="0.0703125" y="0.259766" width="40" height="20" rx="10" fill="#0F67F5"/>
<ellipse cx="30.0703" cy="10.2598" rx="8" ry="8" fill="white"/>
<path d="M50.4872 6.79174V5.89297H56.7623V6.79174H54.1314V14.2598H53.1182V6.79174H50.4872ZM61.2961 11.6942V7.98467H62.2602V14.2598H61.2961V13.1976H61.2307C61.0836 13.5162 60.8548 13.7872 60.5444 14.0106C60.2339 14.2312 59.8417 14.3415 59.3678 14.3415C58.9756 14.3415 58.627 14.2557 58.3219 14.0841C58.0169 13.9098 57.7772 13.6483 57.6029 13.2997C57.4286 12.9484 57.3414 12.5058 57.3414 11.972V7.98467H58.3056V11.9066C58.3056 12.3642 58.4336 12.7291 58.6896 13.0015C58.9484 13.2738 59.2779 13.41 59.6783 13.41C59.9179 13.41 60.1617 13.3487 60.4095 13.2262C60.6601 13.1036 60.8698 12.9157 61.0387 12.6624C61.2103 12.4091 61.2961 12.0864 61.2961 11.6942ZM64.0261 14.2598V7.98467H64.9576V8.93247H65.0229C65.1373 8.62198 65.3443 8.37005 65.6439 8.17668C65.9435 7.9833 66.2812 7.88662 66.6571 7.88662C66.7279 7.88662 66.8164 7.88798 66.9226 7.8907C67.0288 7.89343 67.1092 7.89751 67.1637 7.90296V8.88344C67.131 8.87527 67.0561 8.86302 66.939 8.84668C66.8246 8.82761 66.7034 8.81808 66.5754 8.81808C66.2703 8.81808 65.998 8.88208 65.7583 9.01009C65.5213 9.13537 65.3334 9.30968 65.1945 9.53301C65.0583 9.75362 64.9902 10.0056 64.9902 10.2888V14.2598H64.0261ZM69.2707 10.4849V14.2598H68.3065V7.98467H69.238V8.96515H69.3197C69.4668 8.64649 69.6901 8.39048 69.9897 8.19711C70.2893 8.00101 70.676 7.90296 71.1499 7.90296C71.5748 7.90296 71.9466 7.99011 72.2652 8.16442C72.5839 8.33601 72.8317 8.59747 73.0088 8.94881C73.1858 9.29743 73.2743 9.73864 73.2743 10.2725V14.2598H72.3102V10.3378C72.3102 9.84486 72.1822 9.46084 71.9261 9.18576C71.6701 8.90796 71.3188 8.76905 70.8721 8.76905C70.5644 8.76905 70.2893 8.83578 70.0469 8.96924C69.8072 9.10269 69.6179 9.29743 69.479 9.55344C69.3401 9.80946 69.2707 10.1199 69.2707 10.4849ZM80.821 14.3905C80.2545 14.3905 79.7574 14.2557 79.3298 13.986C78.9049 13.7164 78.5727 13.3392 78.333 12.8544C78.096 12.3696 77.9776 11.8031 77.9776 11.1549C77.9776 10.5012 78.096 9.93066 78.333 9.44314C78.5727 8.95562 78.9049 8.57704 79.3298 8.30741C79.7574 8.03778 80.2545 7.90296 80.821 7.90296C81.3875 7.90296 81.8832 8.03778 82.308 8.30741C82.7356 8.57704 83.0679 8.95562 83.3049 9.44314C83.5445 9.93066 83.6644 10.5012 83.6644 11.1549C83.6644 11.8031 83.5445 12.3696 83.3049 12.8544C83.0679 13.3392 82.7356 13.7164 82.308 13.986C81.8832 14.2557 81.3875 14.3905 80.821 14.3905ZM80.821 13.5244C81.2513 13.5244 81.6054 13.4141 81.8832 13.1935C82.161 12.9729 82.3666 12.6828 82.5001 12.3233C82.6335 11.9638 82.7002 11.5743 82.7002 11.1549C82.7002 10.7355 82.6335 10.3446 82.5001 9.9824C82.3666 9.62017 82.161 9.32739 81.8832 9.10405C81.6054 8.88072 81.2513 8.76905 80.821 8.76905C80.3907 8.76905 80.0366 8.88072 79.7588 9.10405C79.481 9.32739 79.2754 9.62017 79.1419 9.9824C79.0084 10.3446 78.9417 10.7355 78.9417 11.1549C78.9417 11.5743 79.0084 11.9638 79.1419 12.3233C79.2754 12.6828 79.481 12.9729 79.7588 13.1935C80.0366 13.4141 80.3907 13.5244 80.821 13.5244ZM86.1003 10.4849V14.2598H85.1361V7.98467H86.0676V8.96515H86.1493C86.2964 8.64649 86.5197 8.39048 86.8193 8.19711C87.1189 8.00101 87.5056 7.90296 87.9795 7.90296C88.4044 7.90296 88.7762 7.99011 89.0948 8.16442C89.4135 8.33601 89.6613 8.59747 89.8384 8.94881C90.0154 9.29743 90.1039 9.73864 90.1039 10.2725V14.2598H89.1398V10.3378C89.1398 9.84486 89.0118 9.46084 88.7557 9.18576C88.4997 8.90796 88.1484 8.76905 87.7017 8.76905C87.394 8.76905 87.1189 8.83578 86.8765 8.96924C86.6368 9.10269 86.4475 9.29743 86.3086 9.55344C86.1697 9.80946 86.1003 10.1199 86.1003 10.4849Z" fill="#1F1F1F"/>
</svg>

<svg width="92" height="21" fill="none" xmlns="http://www.w3.org/2000/svg"><rect x=".07" y=".26" width="40" height="20" rx="10" fill="#0F67F5"/><circle cx="30.07" cy="10.26" fill="#fff" r="8"/><path d="M50.49 6.8v-.9h6.27v.9h-2.63v7.46h-1.01V6.79h-2.63Zm10.8 4.9V7.97h.97v6.28h-.96V13.2h-.07a1.98 1.98 0 0 1-1.86 1.14c-.4 0-.74-.08-1.05-.26a1.8 1.8 0 0 1-.72-.78c-.17-.35-.26-.8-.26-1.33V7.98h.97v3.93c0 .45.12.82.38 1.1.26.26.59.4.99.4a1.64 1.64 0 0 0 1.62-1.72Zm2.74 2.56V7.98h.93v.95h.06c.12-.3.32-.56.62-.75.3-.2.64-.3 1.02-.3a10.7 10.7 0 0 1 .5.02v.98a2.87 2.87 0 0 0-.58-.06c-.31 0-.58.06-.82.19s-.43.3-.57.52c-.13.22-.2.48-.2.76v3.97h-.96Zm5.24-3.78v3.78h-.96V7.98h.93v.99h.08c.15-.32.37-.58.67-.77.3-.2.69-.3 1.16-.3.42 0 .8.09 1.12.26.31.18.56.44.74.79.18.35.26.79.26 1.32v3.99h-.96v-3.92c0-.5-.13-.88-.38-1.15a1.37 1.37 0 0 0-1.06-.42c-.3 0-.58.07-.82.2s-.43.33-.57.58c-.14.26-.2.57-.2.93Zm11.55 3.91c-.57 0-1.06-.13-1.49-.4a2.75 2.75 0 0 1-1-1.14 3.83 3.83 0 0 1-.35-1.7c0-.65.12-1.22.35-1.7a2.66 2.66 0 0 1 2.5-1.54c.56 0 1.05.13 1.48.4.43.27.76.65 1 1.13.23.5.35 1.06.35 1.71a3.8 3.8 0 0 1-.36 1.7 2.67 2.67 0 0 1-2.48 1.54Zm0-.87c.43 0 .79-.1 1.06-.33.28-.22.49-.5.62-.87a3.42 3.42 0 0 0 0-2.34 1.98 1.98 0 0 0-.62-.88 1.64 1.64 0 0 0-1.06-.33c-.43 0-.78.11-1.06.33-.28.23-.48.52-.62.88a3.46 3.46 0 0 0 0 2.34c.14.36.34.65.62.87.28.22.63.33 1.06.33Zm5.28-3.04v3.78h-.96V7.98h.93v.99h.08c.15-.32.37-.58.67-.77.3-.2.69-.3 1.16-.3.42 0 .8.09 1.11.26.32.18.57.44.75.79.18.35.26.79.26 1.32v3.99h-.96v-3.92c0-.5-.13-.88-.38-1.15a1.37 1.37 0 0 0-1.06-.42c-.3 0-.58.07-.82.2s-.43.33-.57.58c-.14.26-.21.57-.21.93Z" fill="#1F1F1F"/></svg>
